X: 23680
T: Linnane Terrace
R: jig
M: 6/8
K: Gmajor
|gdc BAB|cBB GGG|BAB AAB|cdg efd|
gdc BAA|cBB GDG|BAB cdg|efa fgf|
ede dAB|cBG GGG|BAz AAB|cdg efd|
gdc BAz|cBB GDG|BAB cdg|efa fgb||
agz agf|edz gdc|AAB AAB|cdg efg|
agg agf|edz gdB|GAB cdg|dcB AGB|
dgg agf|edz gdc|GAB AAB|cdg efg|
agg agf|edB GdB|GAB cdg|dcB AGB||

